<?xml version="1.0" encoding="UTF-8"?>
<map version="1.10" tiledversion="1.12.2" orientation="orthogonal" renderorder="right-down" width="50" height="24" tilewidth="32" tileheight="32" infinite="0" backgroundcolor="#10191a" nextlayerid="35" nextobjectid="203">
 <properties>
  <property name="level_id" value="serre-02"/>
  <property name="level_name" value="La chambre des racines"/>
  <property name="music" value="serre_racines"/>
  <property name="pixel_perfect" type="bool" value="true"/>
  <property name="template_version" type="int" value="1"/>
 </properties>
 <tileset firstgid="1" source="../assets/tilesets/niveau-02-serre-mecanique-32x32-v002.tsx"/>
 <tileset firstgid="81" source="../assets/tiled/niveau-04-arene-combat-32x32-v001.tsx"/>
 <layer id="1" name="01 — Arrière-plan lointain" width="50" height="24" opacity="0.4" parallaxx="0.35" parallaxy="0.45">
  <properties>
   <property name="locked_after_blockout" type="bool" value="false"/>
   <property name="z_index" type="int" value="-30"/>
  </properties>
  <data encoding="csv">
0,0,0,0,0,0,0,0,0,0,0,0,0,0,0,0,0,0,0,0,0,0,0,0,0,0,0,0,0,0,0,0,0,0,0,0,0,0,0,0,0,0,0,0,0,0,0,0,0,0,
0,0,0,0,0,0,0,0,0,0,0,0,0,0,0,0,0,0,0,0,0,0,0,0,0,0,0,0,0,0,0,0,0,0,0,0,0,0,0,0,0,0,0,0,0,0,0,0,0,0,
0,36,34,37,35,33,36,34,37,35,33,36,34,37,35,33,36,34,37,35,33,36,34,37,35,33,36,34,37,35,33,36,34,37,35,33,36,34,37,35,33,36,34,37,35,33,36,34,37,0,
0,36,34,37,35,33,36,34,37,35,33,36,34,37,35,33,36,34,37,35,33,36,34,37,35,33,36,34,37,35,33,36,34,37,35,33,36,34,37,35,33,36,34,37,35,33,36,34,37,0,
0,36,34,37,35,33,36,34,37,35,33,36,34,37,35,33,36,34,37,35,33,36,34,37,35,33,36,34,37,35,33,36,34,37,35,33,36,34,37,35,33,36,34,37,35,33,36,34,37,0,
0,36,34,37,35,33,36,34,37,35,33,36,34,37,35,33,36,34,37,35,33,36,34,37,35,33,36,34,37,35,33,36,34,37,35,33,36,34,37,35,33,36,34,37,35,33,36,34,37,0,
0,36,34,37,35,33,36,34,37,35,33,36,34,37,35,33,36,34,37,35,33,36,34,37,35,33,36,34,37,35,33,36,34,37,35,33,36,34,37,35,33,36,34,37,35,33,36,34,37,0,
0,36,34,37,35,33,36,34,37,35,33,36,34,37,35,33,36,34,37,35,33,36,34,37,35,33,36,34,37,35,33,36,34,37,35,33,36,34,37,35,33,36,34,37,35,33,36,34,37,0,
0,36,34,37,35,33,36,34,37,35,33,36,34,37,35,33,36,34,37,35,33,36,34,37,35,33,36,34,37,35,33,36,34,37,35,33,36,34,37,35,33,36,34,37,35,33,36,34,37,0,
0,36,34,37,35,33,36,34,37,35,33,36,34,37,35,33,36,34,37,35,33,36,34,37,35,33,36,34,37,35,33,36,34,37,35,33,36,34,37,35,33,36,34,37,35,33,36,34,37,0,
0,36,34,37,35,33,36,34,37,35,33,36,34,37,35,33,36,34,37,35,33,36,34,37,35,33,36,34,37,35,33,36,34,37,35,33,36,34,37,35,33,36,34,37,35,33,36,34,37,0,
0,36,34,37,35,33,36,34,37,35,33,36,34,37,35,33,36,34,37,35,33,36,34,37,35,33,36,34,37,35,33,36,34,37,35,33,36,34,37,35,33,36,34,37,35,33,36,34,37,0,
0,36,34,37,35,33,36,34,37,35,33,36,34,37,35,33,36,34,37,35,33,36,34,37,35,33,36,34,37,35,33,36,34,37,35,33,36,34,37,35,33,36,34,37,35,33,36,34,37,0,
0,36,34,37,35,33,36,34,37,35,33,36,34,37,35,33,36,34,37,35,33,36,34,37,35,33,36,34,37,35,33,36,34,37,35,33,36,34,37,35,33,36,34,37,35,33,36,34,37,0,
0,36,34,37,35,33,36,34,37,35,33,36,34,37,35,33,36,34,37,35,33,36,34,37,35,33,36,34,37,35,33,36,34,37,35,33,36,34,37,35,33,36,34,37,35,33,36,34,37,0,
0,36,34,37,35,33,36,34,37,35,33,36,34,37,35,33,36,34,37,35,33,36,34,37,35,33,36,34,37,35,33,36,34,37,35,33,36,34,37,35,33,36,34,37,35,33,36,34,37,0,
0,36,34,37,35,33,36,34,37,35,33,36,34,37,35,33,36,34,37,35,33,36,34,37,35,33,36,34,37,35,33,36,34,37,35,33,36,34,37,35,33,36,34,37,35,33,36,34,37,0,
0,36,34,37,35,33,36,34,37,35,33,36,34,37,35,33,36,34,37,35,33,36,34,37,35,33,36,34,37,35,33,36,34,37,35,33,36,34,37,35,33,36,34,37,35,33,36,34,37,0,
0,36,34,37,35,33,36,34,37,35,33,36,34,37,35,33,36,34,37,35,33,36,34,37,35,33,36,34,37,35,33,36,34,37,35,33,36,34,37,35,33,36,34,37,35,33,36,34,37,0,
0,36,34,37,35,33,36,34,37,35,33,36,34,37,35,33,36,34,37,35,33,36,34,37,35,33,36,34,37,35,33,36,34,37,35,33,36,34,37,35,33,36,34,37,35,33,36,34,37,0,
0,0,0,0,0,0,0,0,0,0,0,0,0,0,0,0,0,0,0,0,0,0,0,0,0,0,0,0,0,0,0,0,0,0,0,0,0,0,0,0,0,0,0,0,0,0,0,0,0,0,
0,0,0,0,0,0,0,0,0,0,0,0,0,0,0,0,0,0,0,0,0,0,0,0,0,0,0,0,0,0,0,0,0,0,0,0,0,0,0,0,0,0,0,0,0,0,0,0,0,0,
0,0,0,0,0,0,0,0,0,0,0,0,0,0,0,0,0,0,0,0,0,0,0,0,0,0,0,0,0,0,0,0,0,0,0,0,0,0,0,0,0,0,0,0,0,0,0,0,0,0,
0,0,0,0,0,0,0,0,0,0,0,0,0,0,0,0,0,0,0,0,0,0,0,0,0,0,0,0,0,0,0,0,0,0,0,0,0,0,0,0,0,0,0,0,0,0,0,0,0,0
</data>
 </layer>
 <layer id="2" name="02 — Arrière-plan proche" width="50" height="24" opacity="0.66" parallaxx="0.7" parallaxy="0.8">
  <properties>
   <property name="locked_after_blockout" type="bool" value="false"/>
   <property name="z_index" type="int" value="-20"/>
  </properties>
  <data encoding="csv">
0,0,0,0,0,0,0,0,0,0,0,0,0,0,0,0,0,0,0,0,0,0,0,0,0,0,0,0,0,0,0,0,0,0,0,0,0,0,0,0,0,0,0,0,0,0,0,0,0,0,
30,30,30,30,30,30,30,30,30,30,30,30,30,30,30,30,30,30,30,30,30,30,30,30,30,30,30,30,30,30,30,30,30,30,30,30,30,30,30,30,30,30,30,30,30,30,30,30,30,30,
29,0,0,0,0,0,0,29,0,0,0,0,0,0,29,0,0,0,0,0,0,29,0,0,0,0,0,0,29,0,0,0,0,0,0,29,0,0,0,0,0,0,29,0,0,0,0,0,0,29,
29,0,0,0,0,0,0,29,0,0,0,0,0,0,29,0,0,0,0,0,0,29,0,0,0,0,0,0,29,0,0,0,0,0,0,29,0,0,0,0,0,0,29,0,0,0,0,0,0,29,
29,0,0,0,0,0,0,29,0,0,0,0,0,0,29,0,0,0,0,0,0,29,0,0,0,0,0,0,29,0,0,0,0,0,0,29,0,0,0,0,0,0,29,0,0,0,0,0,0,29,
29,0,0,0,0,0,0,29,0,0,0,0,0,0,29,0,0,0,0,0,0,29,0,0,0,0,0,0,29,0,0,0,0,0,0,29,0,0,0,0,0,0,29,0,0,0,0,0,0,29,
29,0,0,0,0,0,0,29,0,0,0,0,0,0,29,0,0,0,0,0,0,29,0,0,0,0,0,0,29,0,0,0,0,0,0,29,0,0,0,0,0,0,29,0,0,0,0,0,0,29,
29,0,0,0,0,0,31,32,0,0,0,0,0,0,29,0,0,0,0,0,31,32,0,0,0,0,0,0,29,0,0,0,0,0,31,32,0,0,0,0,0,0,29,0,0,0,31,32,0,29,
30,30,30,30,30,30,30,30,30,30,30,30,30,30,30,30,30,30,30,30,30,30,30,30,30,30,30,30,30,30,30,30,30,30,30,30,30,30,30,30,30,30,30,30,30,30,30,30,30,30,
29,0,0,0,0,0,0,29,0,0,0,0,0,0,29,0,0,0,0,0,0,29,0,0,0,0,0,0,29,0,0,0,0,0,0,29,0,0,0,0,0,0,29,0,0,0,0,0,0,29,
29,0,0,0,0,0,0,29,0,0,0,0,0,0,29,0,0,0,0,0,0,29,0,0,0,0,0,0,29,0,0,0,0,0,0,29,0,0,0,0,0,0,29,0,0,0,0,0,0,29,
29,0,0,0,0,0,0,29,0,0,0,0,0,0,29,0,0,0,0,0,0,29,0,0,0,0,0,0,29,0,0,0,0,0,0,29,0,0,0,0,0,0,29,0,0,0,0,0,0,29,
29,0,0,0,0,0,0,29,0,0,0,0,0,0,29,0,0,0,0,0,0,29,0,0,0,0,0,0,29,0,0,0,0,0,0,29,0,0,0,0,0,0,29,0,0,0,0,0,0,29,
29,0,0,0,0,0,0,29,0,0,0,0,0,0,29,0,0,0,0,0,0,29,0,0,0,0,0,0,29,0,0,0,0,0,0,29,0,0,0,0,0,0,29,0,0,0,0,0,0,29,
29,0,0,0,0,0,0,29,0,0,0,0,0,0,29,0,0,0,0,0,0,29,0,0,0,0,0,0,29,0,0,0,0,0,0,29,0,0,0,0,0,0,29,0,0,0,0,0,0,29,
30,30,30,30,30,30,30,30,30,30,30,30,30,30,30,30,30,30,30,30,30,30,30,30,30,30,30,30,30,30,30,30,30,30,30,30,30,30,30,30,30,30,30,30,30,30,30,30,30,30,
29,0,0,0,0,0,0,29,0,0,0,0,0,0,29,0,0,0,0,0,0,29,0,0,0,0,0,0,29,0,0,0,0,0,0,29,0,0,0,0,0,0,29,0,0,0,0,0,0,29,
29,0,0,0,0,0,0,29,0,0,0,0,0,0,29,0,0,0,0,0,0,29,0,0,0,0,0,0,29,0,0,0,0,0,0,29,0,0,0,0,0,0,29,0,0,0,0,0,0,29,
29,0,0,0,0,0,0,29,0,0,0,0,0,0,29,0,0,0,0,0,0,29,0,0,0,0,0,0,29,0,0,0,0,0,0,29,0,0,0,0,0,0,29,0,0,0,0,0,0,29,
29,0,0,0,0,0,0,29,0,0,0,0,0,0,29,0,0,0,0,0,0,29,0,0,0,0,0,0,29,0,0,0,0,0,0,29,0,0,0,0,0,0,29,0,0,0,0,0,0,29,
29,0,0,0,0,0,0,29,0,0,0,0,0,0,29,0,0,0,0,0,0,29,0,0,0,0,0,0,29,0,0,0,0,0,0,29,0,0,0,0,0,0,29,0,0,0,0,0,0,29,
0,0,0,0,0,0,0,0,0,0,0,0,0,0,0,0,0,0,0,0,0,0,0,0,0,0,0,0,0,0,0,0,0,0,0,0,0,0,0,0,0,0,0,0,0,0,0,0,0,0,
0,0,0,0,0,0,0,0,0,0,0,0,0,0,0,0,0,0,0,0,0,0,0,0,0,0,0,0,0,0,0,0,0,0,0,0,0,0,0,0,0,0,0,0,0,0,0,0,0,0,
0,0,0,0,0,0,0,0,0,0,0,0,0,0,0,0,0,0,0,0,0,0,0,0,0,0,0,0,0,0,0,0,0,0,0,0,0,0,0,0,0,0,0,0,0,0,0,0,0,0
</data>
 </layer>
 <layer id="3" name="03 — Structures" width="50" height="24" opacity="0.82" parallaxx="0.9" parallaxy="0.94">
  <properties>
   <property name="locked_after_blockout" type="bool" value="false"/>
   <property name="z_index" type="int" value="-10"/>
  </properties>
  <data encoding="csv">
0,0,0,0,0,0,0,0,0,0,0,0,0,0,0,0,0,0,0,0,0,0,0,0,0,0,0,0,0,0,0,0,0,0,0,0,0,0,0,0,0,0,0,0,0,0,0,0,0,0,
0,0,0,0,0,0,0,0,0,0,0,0,0,0,0,0,0,0,0,0,0,0,0,0,0,0,0,0,0,0,0,0,0,0,0,0,0,0,0,0,0,0,0,0,0,0,0,0,0,0,
0,0,0,0,0,0,0,0,0,0,0,0,0,0,0,0,0,0,0,0,0,0,0,0,0,0,0,0,0,0,0,0,0,0,0,0,0,0,0,0,0,0,0,0,0,0,0,0,0,0,
0,0,0,0,0,0,0,0,0,0,0,0,0,0,0,0,0,0,0,0,0,0,0,0,0,0,0,0,0,0,0,0,0,0,0,0,0,0,0,0,0,0,0,0,0,0,0,0,0,0,
0,0,39,39,39,39,39,39,39,39,39,39,39,41,0,0,0,0,0,0,0,0,0,0,0,0,0,0,0,44,39,39,39,39,39,39,46,39,39,39,39,39,39,39,39,39,39,0,0,0,
0,0,0,0,0,0,0,0,0,0,0,0,0,40,0,0,0,0,0,0,0,0,0,0,0,0,0,0,0,40,0,0,0,0,0,0,0,0,0,0,0,0,0,0,0,0,0,0,0,0,
0,0,0,0,0,0,0,0,0,0,0,0,0,40,0,0,0,0,0,0,0,0,0,0,0,0,0,0,0,40,0,0,0,0,0,0,0,0,0,0,0,0,0,0,0,0,0,0,0,0,
0,0,0,0,0,0,0,0,0,0,0,0,0,40,0,0,0,0,0,0,0,0,0,0,0,0,0,0,0,40,0,0,0,0,0,0,0,0,0,0,0,0,0,0,0,0,0,0,0,0,
0,0,0,0,0,0,0,0,0,0,0,0,0,40,0,0,0,0,0,0,0,0,0,0,0,0,0,0,0,40,0,0,0,0,0,0,0,0,0,0,0,0,0,0,0,0,0,0,0,0,
0,0,0,0,0,0,0,0,0,0,0,0,0,40,0,0,0,0,0,0,0,0,0,0,0,0,0,0,0,40,0,0,0,0,0,0,0,0,0,0,0,0,0,0,0,0,0,0,0,0,
0,0,0,0,0,0,0,0,0,0,0,0,0,43,39,39,39,39,39,39,39,45,39,39,39,39,39,39,39,42,0,0,0,0,0,0,0,0,0,0,0,0,0,0,0,0,0,0,0,0,
0,0,0,0,0,0,0,0,0,0,0,0,0,0,0,0,0,0,0,0,0,0,0,0,0,0,0,0,0,0,0,0,0,0,0,0,0,0,0,0,0,0,0,0,0,0,0,0,0,0,
0,0,0,0,0,0,0,0,0,0,0,0,0,0,0,0,0,0,0,0,0,0,0,0,0,0,0,0,0,0,0,0,0,0,0,0,0,0,0,0,0,0,0,0,0,0,0,0,0,0,
0,0,0,0,0,0,0,0,0,0,0,0,0,0,0,0,0,0,0,0,0,0,0,0,0,0,0,0,0,0,0,0,0,0,0,0,0,0,0,0,0,0,0,0,0,0,0,0,0,0,
0,0,0,0,0,0,0,0,0,0,0,0,0,0,0,0,0,0,0,0,0,0,0,0,0,0,0,0,0,0,0,0,0,0,0,0,0,0,0,0,0,0,0,0,0,0,0,0,0,0,
0,0,0,0,0,0,0,0,0,0,0,0,0,0,0,0,0,0,0,0,0,0,0,0,0,0,0,0,0,0,0,0,0,0,0,0,0,0,0,0,0,0,0,0,0,0,0,0,0,0,
0,0,0,0,0,0,0,0,0,0,0,0,0,0,0,0,0,0,0,0,0,0,0,0,0,0,0,0,0,0,0,0,0,0,0,0,0,0,0,0,0,0,0,0,0,0,0,0,0,0,
0,0,0,0,0,0,0,0,0,0,0,0,0,0,0,0,0,0,0,0,0,0,0,0,0,0,0,0,0,0,0,0,0,0,0,0,0,0,0,0,0,0,0,0,0,0,0,0,0,0,
0,0,0,0,0,0,0,0,0,0,0,0,0,0,0,0,0,0,0,0,0,0,0,0,0,0,0,0,0,0,0,0,0,0,0,0,0,0,0,0,0,0,0,0,0,0,0,0,0,0,
0,0,0,0,0,0,0,0,0,0,0,0,0,0,0,0,0,0,0,0,0,0,0,0,0,0,0,0,0,0,0,0,0,0,0,0,0,0,0,0,0,0,0,0,0,0,0,0,0,0,
0,0,0,0,0,0,0,0,0,0,0,0,0,0,0,0,0,0,0,0,0,0,0,0,0,0,0,0,0,0,0,0,0,0,0,0,0,0,0,0,0,0,0,0,0,0,0,0,0,0,
0,0,0,0,0,0,0,0,0,0,0,0,0,0,0,0,0,0,0,0,0,0,0,0,0,0,0,0,0,0,0,0,0,0,0,0,0,0,0,0,0,0,0,0,0,0,0,0,0,0,
0,0,0,0,0,0,0,0,0,0,0,0,0,0,0,0,0,0,0,0,0,0,0,0,0,0,0,0,0,0,0,0,0,0,0,0,0,0,0,0,0,0,0,0,0,0,0,0,0,0,
0,0,0,0,0,0,0,0,0,0,0,0,0,0,0,0,0,0,0,0,0,0,0,0,0,0,0,0,0,0,0,0,0,0,0,0,0,0,0,0,0,0,0,0,0,0,0,0,0,0
</data>
 </layer>
 <layer id="4" name="04 — Terrain" width="50" height="24">
  <properties>
   <property name="locked_after_blockout" type="bool" value="false"/>
   <property name="z_index" type="int" value="0"/>
  </properties>
  <data encoding="csv">
0,0,0,0,0,0,0,0,0,0,0,0,0,0,0,0,0,0,0,0,0,0,0,0,0,0,0,0,0,0,0,0,0,0,0,0,0,0,0,0,0,0,0,0,0,0,0,0,0,0,
0,0,0,0,0,0,0,0,0,0,0,0,0,0,0,0,0,0,0,0,0,0,0,0,0,0,0,0,0,0,0,0,0,0,0,0,0,0,0,0,0,0,0,0,0,0,0,0,0,0,
0,0,0,0,0,0,0,0,0,0,0,0,0,0,0,0,0,0,0,0,0,0,0,0,0,0,0,0,0,0,0,0,0,0,0,0,0,0,0,0,0,0,0,0,0,0,0,0,0,0,
0,0,0,0,0,0,0,0,0,0,0,0,0,0,0,0,0,0,0,0,0,0,0,0,0,0,0,0,0,0,0,0,0,0,0,0,0,0,0,0,0,0,0,0,0,0,0,0,0,0,
0,0,0,0,0,0,0,0,0,0,0,0,0,0,0,0,0,0,0,0,0,0,0,0,0,0,0,0,0,0,0,0,0,0,0,0,0,0,0,0,0,0,0,0,0,0,0,0,0,0,
0,0,0,0,0,0,0,0,0,0,0,0,0,0,0,0,0,0,0,0,0,0,0,0,0,0,0,0,0,0,0,0,0,0,0,0,0,0,0,0,0,0,0,0,0,0,0,0,0,0,
0,0,0,0,0,0,0,0,0,0,0,0,0,0,0,0,0,0,0,0,0,0,0,0,0,0,0,0,0,0,0,0,0,0,0,0,0,0,0,0,0,0,0,0,0,0,0,0,0,0,
0,0,0,0,0,0,0,0,0,0,0,0,0,0,0,0,0,0,0,0,0,0,0,0,0,0,0,0,0,0,0,0,0,0,0,0,0,0,0,0,0,0,0,0,0,0,0,0,0,0,
0,0,0,0,0,0,0,0,0,0,0,0,0,0,0,0,0,0,0,0,0,0,0,0,0,0,0,0,0,0,0,0,0,0,0,0,0,0,0,0,0,0,0,0,0,0,0,0,0,0,
0,0,0,0,0,0,0,0,0,0,0,0,0,0,0,0,0,0,0,0,0,0,0,0,0,0,0,0,0,0,0,0,0,0,0,0,0,0,0,0,0,0,0,0,0,0,0,0,0,0,
0,0,0,0,0,0,0,0,0,0,0,0,0,0,0,0,0,0,0,0,0,0,0,0,0,0,0,0,0,0,0,0,0,0,0,0,0,0,0,0,0,0,0,0,0,0,0,0,0,0,
0,0,0,0,0,0,0,0,0,0,0,0,0,0,0,0,0,0,0,0,0,0,0,0,0,0,0,0,0,0,0,0,0,0,0,0,0,0,0,0,0,0,0,0,0,0,0,0,0,0,
0,0,0,0,0,0,0,0,0,0,0,0,0,0,0,0,0,0,0,0,0,0,0,0,0,0,0,0,0,0,0,0,0,0,0,0,0,0,0,0,0,0,0,0,0,0,0,0,0,0,
0,0,0,0,0,0,0,0,0,0,0,0,0,0,0,0,0,0,0,0,0,0,0,0,0,0,0,0,0,0,0,0,0,0,0,0,0,0,0,0,0,0,0,0,0,0,0,0,0,0,
0,0,0,0,0,0,0,0,0,0,0,0,0,0,0,0,0,0,0,0,0,0,0,0,0,0,0,0,0,0,0,0,0,0,0,0,0,0,0,0,0,0,0,0,0,0,0,0,0,0,
0,0,0,0,0,0,0,0,0,0,0,0,0,0,0,0,0,0,0,0,0,0,0,0,0,0,0,0,0,0,0,0,0,0,0,0,0,0,0,0,0,0,0,0,0,0,0,0,0,0,
0,0,0,0,0,0,0,0,0,0,0,0,0,0,0,0,0,0,0,0,0,0,0,0,0,0,0,0,0,0,0,0,0,0,0,0,0,0,0,0,0,0,0,0,0,0,0,0,0,0,
0,0,0,0,0,0,0,0,0,0,0,0,0,0,0,0,0,0,0,0,0,0,0,0,0,0,0,0,0,0,0,0,0,0,0,0,0,0,0,0,0,0,0,0,0,0,0,0,0,0,
0,0,0,0,0,0,0,0,0,0,0,0,0,0,0,0,0,0,0,0,0,0,0,0,0,0,0,0,0,0,0,0,0,0,0,0,0,0,0,0,0,0,0,0,0,0,0,0,0,0,
0,0,0,0,0,0,0,0,0,0,0,0,0,0,0,0,0,0,0,0,0,0,0,0,0,0,0,0,0,0,0,0,0,0,0,0,0,0,0,0,0,0,0,0,0,0,0,0,0,0,
2,2,2,2,2,2,2,2,2,0,0,0,0,0,2,2,2,2,2,2,2,2,2,2,0,0,0,0,0,2,2,2,2,2,2,2,2,2,2,2,2,2,2,2,2,2,2,2,2,2,
1,1,1,1,1,1,1,1,1,0,0,0,0,0,1,1,1,1,1,1,1,1,1,1,0,0,0,0,0,1,1,1,1,1,1,1,1,1,1,1,1,1,1,1,1,1,1,1,1,1,
1,1,1,1,1,1,1,1,1,0,0,0,0,0,1,1,1,1,1,1,1,1,1,1,0,0,0,0,0,1,1,1,1,1,1,1,1,1,1,1,1,1,1,1,1,1,1,1,1,1,
1,1,1,1,1,1,1,1,1,0,0,0,0,0,1,1,1,1,1,1,1,1,1,1,0,0,0,0,0,1,1,1,1,1,1,1,1,1,1,1,1,1,1,1,1,1,1,1,1,1
</data>
 </layer>
 <layer id="5" name="05 — Plateformes" width="50" height="24">
  <properties>
   <property name="locked_after_blockout" type="bool" value="false"/>
   <property name="z_index" type="int" value="5"/>
  </properties>
  <data encoding="csv">
0,0,0,0,0,0,0,0,0,0,0,0,0,0,0,0,0,0,0,0,0,0,0,0,0,0,0,0,0,0,0,0,0,0,0,0,0,0,0,0,0,0,0,0,0,0,0,0,0,0,
0,0,0,0,0,0,0,0,0,0,0,0,0,0,0,0,0,0,0,0,0,0,0,0,0,0,0,0,0,0,0,0,0,0,0,0,0,0,0,0,0,0,0,0,0,0,0,0,0,0,
0,0,0,0,0,0,0,0,0,0,115,115,0,0,0,0,0,0,0,0,0,0,0,0,0,0,0,0,0,0,0,0,0,0,0,0,0,0,0,0,0,0,0,0,0,0,0,0,0,0,
0,115,115,115,115,115,115,115,115,115,115,115,115,115,115,115,115,115,115,115,115,115,115,115,115,115,115,115,115,115,115,115,115,115,115,115,115,115,115,115,115,115,115,115,115,115,115,115,115,115,
0,0,0,0,0,0,0,0,0,0,0,0,0,0,0,0,0,0,0,0,0,0,0,0,0,0,0,0,0,0,0,0,0,0,0,0,0,0,0,0,0,0,0,0,0,0,0,0,0,0,
0,0,0,0,0,0,0,0,0,0,0,0,0,0,0,0,0,0,0,0,0,0,0,0,0,0,0,0,0,0,0,0,0,0,0,0,0,0,0,0,0,0,0,0,0,0,0,0,0,0,
0,0,0,0,0,0,0,0,0,0,0,0,0,0,0,0,0,0,0,0,0,0,0,0,0,0,0,0,0,0,0,0,0,0,0,0,0,0,0,0,0,0,0,0,13,14,14,15,0,0,
0,0,0,0,0,0,0,0,0,0,0,0,0,0,0,0,0,0,0,0,0,0,0,0,0,0,0,0,0,0,0,0,0,0,0,0,0,0,0,0,0,0,0,0,0,0,0,0,0,0,
0,0,0,0,0,0,0,0,0,0,0,0,0,0,0,0,0,0,0,0,0,0,0,0,0,0,0,0,0,0,0,0,0,0,0,0,0,0,0,0,10,11,11,11,12,0,0,0,0,0,
0,0,0,0,0,0,0,0,0,0,0,0,0,0,0,0,0,0,0,0,0,0,0,0,0,0,0,0,0,0,0,0,0,0,0,0,0,0,0,0,0,0,0,0,0,0,0,0,0,0,
0,0,0,0,0,0,0,0,0,0,0,0,0,0,0,0,0,0,0,0,0,0,0,0,0,0,0,0,0,0,0,0,0,0,0,0,0,0,0,0,0,0,0,0,0,0,0,0,0,0,
0,0,0,0,0,0,0,0,0,0,0,0,0,0,0,0,13,14,14,14,14,15,0,0,0,0,0,0,0,0,0,0,0,0,0,0,13,14,14,14,14,15,0,0,0,0,0,0,0,0,
0,0,0,0,0,0,0,0,0,0,0,0,0,0,0,0,0,0,0,0,0,0,0,0,0,0,0,0,0,0,0,0,0,0,0,0,0,0,0,0,0,0,0,0,0,0,0,0,0,0,
0,0,0,0,0,0,0,0,0,0,0,0,0,0,0,0,0,0,0,0,0,10,11,11,11,12,0,0,0,0,0,10,11,11,11,12,0,0,0,0,0,0,0,0,0,0,0,0,0,0,
0,0,0,0,0,0,0,0,0,0,0,0,0,10,11,11,11,12,0,0,0,0,0,0,0,0,0,0,0,0,0,0,0,0,0,0,0,0,0,0,0,0,0,0,0,0,0,0,0,0,
0,0,0,0,0,0,0,0,0,0,0,0,0,0,0,0,0,0,0,0,0,0,0,0,0,0,13,14,14,14,15,0,0,0,0,0,0,0,0,0,0,0,0,0,0,0,0,0,0,0,
0,0,0,0,0,0,0,0,13,14,14,14,15,0,0,0,0,0,0,0,0,0,0,0,0,0,0,0,0,0,0,0,0,0,0,0,0,0,0,0,0,0,0,0,0,0,0,0,0,0,
0,0,0,0,0,0,0,0,0,0,0,0,0,0,0,0,0,0,0,0,0,0,0,0,0,0,0,0,0,0,0,0,0,0,0,0,0,0,0,0,0,0,0,0,0,0,0,0,0,0,
0,0,0,10,11,11,11,12,0,0,0,0,0,0,0,0,0,0,0,0,0,0,0,0,0,0,0,0,0,0,0,0,0,0,0,0,0,0,0,0,0,0,0,0,0,0,0,0,0,0,
0,0,0,0,0,0,0,0,0,0,0,0,0,0,0,0,0,0,0,0,0,0,0,0,0,0,0,0,0,0,0,0,0,0,0,0,0,0,0,0,0,0,0,0,0,0,0,0,0,0,
0,0,0,0,0,0,0,0,0,0,0,0,0,0,0,0,0,0,0,0,0,0,0,0,0,0,0,0,0,0,0,0,0,0,0,0,0,0,0,0,0,0,0,0,0,0,0,0,0,0,
0,0,0,0,0,0,0,0,0,0,0,0,0,0,0,0,0,0,0,0,0,0,0,0,0,0,0,0,0,0,0,0,0,0,0,0,0,0,0,0,0,0,0,0,0,0,0,0,0,0,
0,0,0,0,0,0,0,0,0,0,0,0,0,0,0,0,0,0,0,0,0,0,0,0,0,0,0,0,0,0,0,0,0,0,0,0,0,0,0,0,0,0,0,0,0,0,0,0,0,0,
0,0,0,0,0,0,0,0,0,0,0,0,0,0,0,0,0,0,0,0,0,0,0,0,0,0,0,0,0,0,0,0,0,0,0,0,0,0,0,0,0,0,0,0,0,0,0,0,0,0
</data>
 </layer>
 <layer id="6" name="06 — Gameplay visible" width="50" height="24">
  <properties>
   <property name="locked_after_blockout" type="bool" value="false"/>
   <property name="z_index" type="int" value="10"/>
  </properties>
  <data encoding="csv">
0,0,0,0,0,0,0,0,0,0,0,0,0,0,0,0,0,0,0,0,0,0,0,0,0,0,0,0,0,0,0,0,0,0,0,0,0,0,0,0,0,0,0,0,0,0,0,0,0,0,
0,0,0,0,0,0,0,0,0,0,0,0,0,0,0,0,0,0,0,0,0,0,0,0,0,0,0,0,0,0,0,0,0,0,0,0,0,0,0,0,0,0,0,0,0,0,0,0,0,0,
0,0,0,0,0,0,0,0,0,0,0,0,0,0,0,0,0,0,0,0,0,0,0,0,0,0,0,0,0,0,0,0,0,0,0,0,0,0,0,0,0,0,0,0,0,0,0,0,0,0,
0,0,0,0,0,0,0,0,0,0,0,0,0,0,0,0,0,0,0,0,0,0,0,0,0,0,0,0,0,0,0,0,0,0,0,0,0,0,0,0,0,0,0,0,0,0,0,0,0,0,
0,0,0,0,0,0,0,0,0,0,0,0,0,0,0,0,0,0,0,0,0,0,0,0,0,0,0,0,0,0,0,0,0,0,0,0,0,0,0,0,0,0,0,0,0,0,0,0,0,0,
0,0,0,0,0,0,0,0,0,0,0,0,0,0,0,0,0,0,0,0,0,0,0,0,0,0,0,0,0,0,0,0,0,0,0,0,0,0,0,0,0,0,0,0,0,54,56,0,0,0,
0,0,0,0,0,0,0,0,0,0,0,0,0,0,0,0,0,0,0,0,0,0,0,0,0,0,0,0,0,0,0,0,0,0,0,0,0,0,0,0,0,0,0,0,0,0,0,0,0,0,
0,0,0,0,0,0,0,0,0,0,0,0,0,0,0,0,0,0,0,0,0,0,0,0,0,0,0,0,0,0,0,0,0,0,0,0,0,0,0,0,0,0,0,61,0,0,0,0,0,0,
0,0,0,0,0,0,0,0,0,0,0,0,0,0,0,0,0,0,0,0,0,0,0,0,0,0,0,0,0,0,0,0,0,0,0,0,0,0,0,0,59,0,0,0,0,0,0,0,0,0,
0,0,0,0,0,0,0,0,0,0,0,0,0,0,0,0,0,0,0,0,0,0,0,0,0,0,0,0,0,0,0,0,0,0,0,0,0,0,0,0,59,0,0,0,0,0,0,0,0,0,
0,0,0,0,0,0,0,0,0,0,0,0,0,0,0,0,0,0,0,0,0,0,0,0,0,0,0,0,0,0,0,0,0,0,0,0,0,0,0,0,59,0,0,0,0,0,0,0,0,0,
0,0,0,0,0,0,0,0,0,0,0,0,0,0,0,0,58,0,0,0,0,0,0,0,0,0,0,0,0,0,0,0,0,0,0,0,0,0,0,0,0,0,0,0,0,0,0,0,0,0,
0,0,0,0,0,0,0,0,0,0,0,0,0,0,0,0,58,0,0,0,0,0,61,0,0,0,0,0,0,0,0,0,0,0,61,0,0,0,0,0,0,0,0,0,0,0,0,0,0,0,
0,0,0,0,0,0,0,0,0,0,0,0,0,0,0,0,58,0,0,0,0,0,0,0,0,0,0,0,0,0,0,0,0,0,0,0,0,0,0,0,0,0,0,0,0,0,0,0,0,0,
0,0,0,0,0,0,0,0,0,0,0,0,0,0,0,0,0,0,0,0,0,0,0,0,0,0,0,0,0,0,0,0,0,0,0,0,0,0,0,0,0,0,0,0,0,0,0,0,0,0,
0,0,0,0,0,0,0,0,0,0,0,61,0,0,0,0,0,0,0,0,0,0,0,0,0,0,0,0,0,0,0,0,0,0,0,0,0,0,0,0,0,0,0,0,0,0,0,0,0,0,
0,0,0,0,0,0,0,0,0,0,0,0,0,0,0,0,0,0,0,0,0,0,0,0,0,0,0,0,0,0,0,0,0,0,0,0,0,0,0,0,0,0,0,0,0,0,0,0,0,0,
0,0,0,0,0,0,0,0,0,0,0,0,0,0,0,0,0,0,0,0,0,0,0,0,0,0,0,0,0,0,0,0,0,0,0,0,0,0,0,0,0,0,0,0,0,0,0,0,0,0,
0,0,0,0,0,0,0,0,0,0,0,0,0,0,0,0,0,0,0,0,0,0,0,0,0,0,0,0,0,0,0,0,0,0,0,0,0,0,0,0,0,0,0,0,0,0,0,0,0,0,
0,0,0,0,0,0,0,0,0,0,0,0,0,0,0,0,0,0,0,0,0,0,0,0,0,49,50,0,0,0,53,0,0,0,0,0,0,0,0,0,0,0,0,0,0,0,0,0,0,0,
0,0,0,0,0,0,0,0,0,52,52,52,52,52,0,0,0,0,0,0,0,0,0,0,52,52,52,52,52,0,0,0,0,0,0,0,0,0,0,0,0,0,0,0,0,0,0,0,0,0,
0,0,0,0,0,0,0,0,0,51,51,51,51,51,0,0,0,0,0,0,0,0,0,0,51,51,51,51,51,0,0,0,0,0,0,0,0,0,0,0,0,0,0,0,0,0,0,0,0,0,
0,0,0,0,0,0,0,0,0,51,51,51,51,51,0,0,0,0,0,0,0,0,0,0,51,51,51,51,51,0,0,0,0,0,0,0,0,0,0,0,0,0,0,0,0,0,0,0,0,0,
0,0,0,0,0,0,0,0,0,51,51,51,51,51,0,0,0,0,0,0,0,0,0,0,51,51,51,51,51,0,0,0,0,0,0,0,0,0,0,0,0,0,0,0,0,0,0,0,0,0
</data>
 </layer>
 <layer id="7" name="07 — Décoration" width="50" height="24">
  <properties>
   <property name="locked_after_blockout" type="bool" value="false"/>
   <property name="z_index" type="int" value="20"/>
  </properties>
  <data encoding="csv">
0,0,0,0,0,0,0,0,0,0,0,0,0,0,0,0,0,0,0,0,0,0,0,0,0,0,0,0,0,0,0,0,0,0,0,0,0,0,0,0,0,0,0,0,0,0,0,0,0,0,
0,0,0,0,0,0,0,0,0,0,0,0,0,0,0,0,0,0,0,0,0,0,0,0,0,0,0,0,0,0,0,0,0,0,0,0,0,0,0,0,0,0,0,0,0,0,0,0,0,0,
0,0,0,0,0,0,0,0,0,0,0,0,0,0,0,0,0,0,0,0,0,0,0,0,0,0,0,0,0,0,0,0,0,0,0,0,0,0,0,0,0,0,0,0,0,0,0,0,0,0,
0,0,0,0,0,0,0,0,0,0,0,0,0,0,0,0,0,0,0,0,0,0,0,0,0,0,0,0,0,0,0,0,0,0,0,0,0,0,0,0,0,0,0,0,0,0,0,0,0,0,
0,0,0,0,0,0,0,0,0,0,0,0,0,0,0,0,0,0,0,0,0,0,0,0,0,0,0,0,0,0,0,0,0,0,0,0,0,0,0,0,0,0,0,0,0,0,0,0,0,0,
0,0,0,0,0,0,0,0,0,0,0,0,0,0,0,0,0,0,0,0,0,0,0,0,0,0,0,0,0,0,0,0,0,0,0,0,0,0,0,0,0,0,0,0,0,0,0,0,0,0,
0,0,0,0,0,0,0,0,0,0,0,0,0,0,0,0,0,0,0,0,0,0,0,0,0,0,0,0,0,0,0,0,0,0,0,0,0,0,0,0,0,0,0,0,0,0,0,0,0,0,
0,0,0,0,0,0,0,0,0,0,0,0,0,0,0,0,0,0,0,0,0,0,0,0,0,0,0,0,0,0,0,0,0,0,0,0,0,0,0,0,0,0,0,0,0,0,0,0,0,0,
0,0,0,0,0,0,0,0,0,0,0,0,0,0,0,0,0,0,0,0,0,0,0,0,0,0,0,0,0,0,0,0,0,0,0,0,0,0,0,0,0,0,0,0,0,0,0,0,0,0,
0,0,0,0,0,0,0,0,0,0,0,0,0,0,0,0,0,0,0,0,0,0,0,0,0,0,0,0,0,0,0,0,0,0,0,0,0,0,0,0,0,0,0,0,0,0,0,0,0,0,
0,0,0,0,0,0,0,0,0,0,0,0,0,0,0,0,0,0,0,0,0,0,0,0,0,0,0,0,0,0,0,0,0,0,0,76,0,0,0,0,0,0,77,0,0,0,0,63,0,0,
0,0,0,0,0,0,0,0,0,0,0,0,0,0,0,0,0,0,0,0,0,0,0,0,0,0,0,0,0,0,0,0,0,0,0,0,0,0,0,0,0,0,0,0,0,0,0,0,0,0,
0,0,0,0,0,0,0,0,0,0,0,0,0,0,0,0,0,0,0,0,0,0,0,0,0,0,0,0,0,0,0,0,0,0,0,0,0,0,0,0,0,0,0,0,0,0,0,0,0,0,
0,0,0,0,0,0,0,0,0,0,0,0,0,0,0,0,0,0,0,0,0,0,0,0,0,0,0,0,0,0,0,0,0,0,0,0,0,0,0,0,0,0,0,0,0,0,0,0,0,0,
0,0,0,0,0,0,0,0,0,0,0,0,0,0,0,0,0,0,0,0,0,0,0,0,0,0,0,0,0,0,0,0,0,0,0,0,0,0,0,0,0,0,0,0,0,0,0,0,0,0,
0,0,0,0,0,0,0,0,0,0,0,0,0,0,0,0,0,0,0,0,0,0,0,0,0,0,0,0,0,0,0,0,0,0,0,0,0,0,0,0,0,0,0,0,0,0,0,0,0,0,
0,0,0,0,0,0,0,0,0,0,0,0,0,0,0,0,0,0,0,0,0,0,0,0,0,0,0,0,0,0,0,0,0,0,0,0,0,0,0,0,0,0,0,0,0,0,0,0,0,0,
0,0,0,0,0,0,0,0,0,0,0,0,0,0,0,0,0,0,0,0,0,0,0,0,0,0,0,0,0,0,0,0,0,0,0,0,0,0,0,0,0,0,0,0,0,0,0,0,0,0,
0,0,0,0,0,0,0,0,0,0,0,0,0,0,0,0,0,0,0,0,0,0,0,0,0,0,0,0,0,0,0,0,0,0,0,0,0,0,0,0,0,0,0,0,0,0,0,0,0,0,
0,0,63,0,0,73,0,64,0,0,0,0,0,0,0,78,0,0,74,0,62,0,0,75,0,0,0,0,0,0,0,0,80,0,0,0,0,0,79,0,0,0,0,0,0,0,0,0,78,0,
0,0,0,0,0,0,0,0,0,0,0,0,0,0,0,0,0,0,0,0,0,0,0,0,0,0,0,0,0,0,0,0,0,0,0,0,0,0,0,0,0,0,0,0,0,0,0,0,0,0,
0,0,0,0,0,0,0,0,0,0,0,0,0,0,0,0,0,0,0,0,0,0,0,0,0,0,0,0,0,0,0,0,0,0,0,0,0,0,0,0,0,0,0,0,0,0,0,0,0,0,
0,0,0,0,0,0,0,0,0,0,0,0,0,0,0,0,0,0,0,0,0,0,0,0,0,0,0,0,0,0,0,0,0,0,0,0,0,0,0,0,0,0,0,0,0,0,0,0,0,0,
0,0,0,0,0,0,0,0,0,0,0,0,0,0,0,0,0,0,0,0,0,0,0,0,0,0,0,0,0,0,0,0,0,0,0,0,0,0,0,0,0,0,0,0,0,0,0,0,0,0
</data>
 </layer>
 <layer id="8" name="08 — Premier plan" width="50" height="24" opacity="0.92" parallaxx="1.08" parallaxy="1.04">
  <properties>
   <property name="locked_after_blockout" type="bool" value="false"/>
   <property name="z_index" type="int" value="30"/>
  </properties>
  <data encoding="csv">
0,0,0,0,0,0,0,0,0,0,0,0,0,0,0,0,0,0,0,0,0,0,0,0,0,0,0,0,0,0,0,0,0,0,0,0,0,0,0,0,0,0,0,0,0,0,0,0,0,0,
0,0,0,0,0,0,0,0,0,0,0,0,0,0,0,0,0,0,0,0,0,0,0,0,0,0,0,0,0,0,0,0,0,0,0,0,0,0,0,0,0,0,0,0,0,0,0,0,0,0,
0,0,0,0,0,0,66,0,0,0,0,0,0,0,0,0,0,0,0,0,0,0,0,0,0,0,0,68,0,0,0,0,0,0,0,0,0,0,0,0,0,0,0,0,0,0,0,0,66,0,
0,65,0,0,0,0,0,0,0,0,0,0,0,0,0,0,0,0,67,0,0,0,0,0,0,0,0,0,0,0,0,0,0,0,0,0,0,65,0,0,0,0,0,0,0,0,0,0,0,0,
0,0,0,0,0,0,0,0,0,0,0,0,0,0,0,0,0,0,0,0,0,0,0,0,0,0,0,0,0,0,0,0,0,0,0,0,0,0,0,0,0,0,0,0,0,0,0,0,0,0,
0,0,0,0,0,0,0,0,0,0,0,0,0,0,0,0,0,0,0,0,0,0,0,0,0,0,0,0,0,0,0,0,0,0,0,0,0,0,0,0,0,0,0,0,0,0,0,0,0,0,
0,0,0,0,0,0,0,0,0,0,0,0,0,0,0,0,0,0,0,0,0,0,0,0,0,0,0,0,0,0,0,0,0,0,0,0,0,0,0,0,0,0,0,0,0,0,0,0,0,0,
0,0,0,0,0,0,0,0,0,0,0,0,0,0,0,0,0,0,0,0,0,0,0,0,0,0,0,0,0,0,0,0,0,0,0,0,0,0,0,0,0,0,0,0,0,0,0,0,0,0,
0,0,0,0,0,0,0,0,0,0,0,0,0,0,0,0,0,0,0,0,0,0,0,0,0,0,0,0,0,0,0,0,0,0,0,0,0,0,0,0,0,0,0,0,0,0,0,0,0,0,
0,0,0,0,0,0,0,0,0,0,0,0,0,0,0,0,0,0,0,0,0,0,0,0,0,0,0,0,0,0,0,0,0,0,0,0,0,0,0,0,0,0,0,0,0,0,0,0,0,0,
0,0,0,0,0,0,0,0,0,0,0,0,0,0,0,0,0,0,0,0,0,0,0,0,0,0,0,0,0,0,0,0,0,0,0,0,0,0,0,0,0,0,0,0,0,0,0,0,0,0,
0,0,0,0,0,0,0,0,0,0,0,0,0,0,0,0,0,0,0,0,0,0,0,0,0,0,0,0,0,0,0,0,0,0,0,0,0,0,0,0,0,0,0,0,0,0,0,0,0,0,
0,0,0,0,0,0,0,0,0,0,0,0,0,0,0,0,0,0,0,0,0,0,0,0,0,0,0,0,0,0,0,0,0,0,0,0,0,0,0,0,0,0,0,0,0,0,0,0,0,0,
0,0,0,0,0,0,0,0,0,0,0,0,0,0,0,0,0,0,0,0,0,0,0,0,0,0,0,0,0,0,0,0,0,0,0,0,0,0,0,0,0,0,0,0,0,0,0,0,0,0,
0,0,0,0,0,0,0,0,0,0,0,0,0,0,0,0,0,0,0,0,0,0,0,0,0,0,0,0,0,0,0,0,0,0,0,0,0,0,0,0,0,0,0,0,0,0,0,0,0,0,
0,0,0,0,0,0,0,0,0,0,0,0,0,0,0,0,0,0,0,0,0,0,0,0,0,0,0,0,0,0,0,0,0,0,0,0,0,0,0,0,0,0,0,0,0,0,0,0,0,0,
0,0,0,0,0,0,0,0,0,0,0,0,0,0,0,0,0,0,0,0,0,0,0,0,0,0,0,0,0,0,0,0,0,0,0,0,0,0,0,0,0,0,0,0,0,0,0,0,0,0,
0,0,0,0,0,0,0,0,0,0,0,0,0,0,0,0,0,0,0,0,0,0,0,0,0,0,0,0,0,0,0,0,0,0,0,0,0,0,0,0,0,0,0,0,0,0,0,0,0,0,
0,0,0,0,0,0,0,0,0,0,0,0,0,0,0,0,0,0,0,0,0,0,0,0,0,0,0,0,0,0,0,0,0,0,0,0,0,0,0,0,0,0,0,0,0,0,0,0,0,0,
0,0,0,0,0,0,0,0,0,0,0,0,0,0,0,0,0,0,0,0,0,0,0,0,0,0,0,0,0,0,0,0,0,0,0,0,0,0,0,0,0,0,0,0,0,0,0,0,0,0,
0,0,0,0,0,0,0,0,0,0,0,0,0,0,0,0,0,0,0,0,0,0,0,0,0,0,0,0,0,0,0,0,0,0,0,0,0,0,0,0,0,0,0,0,0,0,0,0,0,0,
0,0,0,0,0,0,0,0,0,0,0,0,0,0,0,0,0,0,0,0,0,0,0,0,0,0,0,0,0,0,0,0,0,0,0,0,0,0,0,0,0,0,0,0,0,0,0,0,0,0,
0,0,0,0,0,0,0,0,0,0,0,0,0,0,0,0,0,0,0,0,0,0,0,0,0,0,0,0,0,0,0,0,0,0,0,0,0,0,0,0,0,0,0,0,0,0,0,0,0,0,
0,0,0,0,0,0,0,0,0,0,0,0,0,0,0,0,0,0,0,0,0,0,0,0,0,0,0,0,0,0,0,0,0,0,0,0,0,0,0,0,0,0,0,0,0,0,0,0,0,0
</data>
 </layer>
 <objectgroup color="#ff5c5c" id="10" name="10 — Collisions">
  <properties>
   <property name="godot_role" value="collision"/>
   <property name="z_index" type="int" value="0"/>
  </properties>
  <object id="1" name="sol_depart" type="solid" x="0" y="640" width="288" height="128"/>
  <object id="2" name="sol_central" type="solid" x="448" y="640" width="320" height="128"/>
  <object id="3" name="sol_sortie" type="solid" x="928" y="640" width="672" height="128"/>
  <object id="10" name="palier_01" type="one_way" x="96" y="576" width="160" height="8">
   <properties>
    <property name="one_way_margin" type="float" value="3"/>
   </properties>
  </object>
  <object id="11" name="palier_02" type="one_way" x="256" y="512" width="160" height="8">
   <properties>
    <property name="one_way_margin" type="float" value="3"/>
   </properties>
  </object>
  <object id="12" name="palier_03" type="one_way" x="416" y="448" width="160" height="8">
   <properties>
    <property name="one_way_margin" type="float" value="3"/>
   </properties>
  </object>
  <object id="13" name="palier_04" type="one_way" x="512" y="352" width="192" height="8">
   <properties>
    <property name="one_way_margin" type="float" value="3"/>
   </properties>
  </object>
  <object id="14" name="palier_05" type="one_way" x="672" y="416" width="160" height="8">
   <properties>
    <property name="one_way_margin" type="float" value="3"/>
   </properties>
  </object>
  <object id="15" name="palier_06" type="one_way" x="832" y="480" width="160" height="8">
   <properties>
    <property name="one_way_margin" type="float" value="3"/>
   </properties>
  </object>
  <object id="16" name="palier_07" type="one_way" x="992" y="416" width="160" height="8">
   <properties>
    <property name="one_way_margin" type="float" value="3"/>
   </properties>
  </object>
  <object id="17" name="palier_08" type="one_way" x="1152" y="352" width="192" height="8">
   <properties>
    <property name="one_way_margin" type="float" value="3"/>
   </properties>
  </object>
  <object id="18" name="palier_09" type="one_way" x="1280" y="256" width="160" height="8">
   <properties>
    <property name="one_way_margin" type="float" value="3"/>
   </properties>
  </object>
  <object id="19" name="palier_10" type="one_way" x="1408" y="192" width="128" height="8">
   <properties>
    <property name="one_way_margin" type="float" value="3"/>
   </properties>
  </object>
  <object id="202" name="cordage" type="grapple_surface" x="36" y="97.3963" width="1561" height="25.2073"/>
 </objectgroup>
 <objectgroup color="#5ce1ff" id="11" name="11 — Mouvements">
  <properties>
   <property name="godot_role" value="gameplay"/>
   <property name="z_index" type="int" value="0"/>
  </properties>
  <object id="30" name="echelle_cuve" type="climbable" x="512" y="352" width="32" height="96"/>
  <object id="31" name="chaine_palan" type="climbable" x="1280" y="256" width="32" height="96"/>
  <object id="32" name="ressort_secours" type="bounce" x="960" y="608" width="32" height="32">
   <properties>
    <property name="impulse_y" type="float" value="-620"/>
   </properties>
  </object>
 </objectgroup>
 <objectgroup color="#ff8a5c" id="12" name="12 — Dangers">
  <properties>
   <property name="godot_role" value="gameplay"/>
   <property name="z_index" type="int" value="0"/>
  </properties>
  <object id="40" name="canal_toxique_ouest" type="hazard" x="288" y="648" width="160" height="120">
   <properties>
    <property name="damage" type="int" value="1"/>
    <property name="respawn" type="bool" value="true"/>
   </properties>
  </object>
  <object id="41" name="canal_toxique_est" type="hazard" x="768" y="648" width="160" height="120">
   <properties>
    <property name="damage" type="int" value="1"/>
    <property name="respawn" type="bool" value="true"/>
   </properties>
  </object>
  <object id="42" name="pics_station_pompage" type="hazard" x="800" y="616" width="64" height="24">
   <properties>
    <property name="damage" type="int" value="1"/>
    <property name="respawn" type="bool" value="true"/>
   </properties>
  </object>
  <object id="43" name="zone_mort" type="death_zone" x="0" y="768" width="1600" height="64">
   <properties>
    <property name="respawn" type="bool" value="true"/>
   </properties>
  </object>
 </objectgroup>
 <objectgroup color="#65d6a6" id="13" name="13 — Entités">
  <properties>
   <property name="godot_role" value="gameplay"/>
   <property name="z_index" type="int" value="0"/>
  </properties>
  <object id="50" name="apparition_joueur" type="player_spawn" x="64" y="640">
   <properties>
    <property name="facing" value="right"/>
   </properties>
   <point/>
  </object>
  <object id="51" name="checkpoint_pompe" type="checkpoint" x="928" y="640">
   <properties>
    <property name="checkpoint_id" value="cp_pompe"/>
    <property name="spawn_offset_y" type="float" value="-24"/>
   </properties>
   <point/>
  </object>
  <object id="60" name="capsule_01" type="collectible" x="368" y="480">
   <properties>
    <property name="value" type="int" value="1"/>
   </properties>
   <point/>
  </object>
  <object id="61" name="capsule_02" type="collectible" x="720" y="384">
   <properties>
    <property name="value" type="int" value="1"/>
   </properties>
   <point/>
  </object>
  <object id="62" name="capsule_03" type="collectible" x="1104" y="384">
   <properties>
    <property name="value" type="int" value="1"/>
   </properties>
   <point/>
  </object>
  <object id="63" name="capsule_04" type="collectible" x="1392" y="224">
   <properties>
    <property name="value" type="int" value="1"/>
   </properties>
   <point/>
  </object>
 </objectgroup>
 <objectgroup color="#c58cff" id="14" name="14 — Interactions">
  <properties>
   <property name="godot_role" value="gameplay"/>
   <property name="z_index" type="int" value="0"/>
  </properties>
  <object id="70" name="levier_sortie" type="interactable" x="1471.97" y="192.031" width="32" height="32" rotation="180.11">
   <properties>
    <property name="action" value="open_exit"/>
    <property name="target" value="porte_sortie"/>
   </properties>
  </object>
  <object id="71" name="porte_sortie" type="exit" x="1472" y="160" width="32" height="32">
   <properties>
    <property name="next_level" value="niveau-03-a-definir"/>
    <property name="requires" value="open_exit"/>
   </properties>
  </object>
  <object id="72" name="message_echelle" type="trigger" x="448" y="416" width="96" height="64">
   <properties>
    <property name="event" value="indice_echelle"/>
   </properties>
  </object>
 </objectgroup>
 <objectgroup color="#ffd65c" id="15" name="15 — Caméra" visible="0">
  <properties>
   <property name="godot_role" value="camera"/>
   <property name="z_index" type="int" value="0"/>
  </properties>
  <object id="80" name="limites_camera" type="camera_bounds" x="0" y="0" width="1600" height="768"/>
  <object id="81" name="focus_palan" type="camera_focus" x="1152" y="192" width="320" height="224">
   <properties>
    <property name="priority" type="int" value="1"/>
    <property name="zoom" type="float" value="0.95"/>
   </properties>
  </object>
 </objectgroup>
 <objectgroup color="#5cc8ff" id="16" name="16 — Audio" visible="0">
  <properties>
   <property name="godot_role" value="audio"/>
   <property name="z_index" type="int" value="0"/>
  </properties>
  <object id="90" name="ambiance_racines" type="audio_zone" x="0" y="0" width="960" height="768">
   <properties>
    <property name="fade_time" type="float" value="0.8"/>
    <property name="snapshot" value="roots_hum"/>
   </properties>
  </object>
  <object id="91" name="ambiance_palan" type="audio_zone" x="960" y="0" width="640" height="768">
   <properties>
    <property name="fade_time" type="float" value="0.8"/>
    <property name="snapshot" value="chain_room"/>
   </properties>
  </object>
 </objectgroup>
 <objectgroup color="#ffffff" id="17" name="17 — Repères et chemins">
  <properties>
   <property name="godot_role" value="object"/>
   <property name="z_index" type="int" value="0"/>
  </properties>
  <object id="100" name="repere_pompe" type="marker" x="960" y="576">
   <properties>
    <property name="tag" value="pump_room"/>
   </properties>
   <point/>
  </object>
  <object id="101" name="chemin_patrouille" type="path" x="992" y="416">
   <properties>
    <property name="loop" type="bool" value="true"/>
   </properties>
   <polyline points="0,0 128,0 160,-64"/>
  </object>
 </objectgroup>
</map>
